assets/Popcorn/Flat/popcorn_flat.svg

<svg width="32" height="32" viewBox="0 0 32 32" fill="none" xmlns="http://www.w3.org/2000/svg">
<path d="M19.93 5.03C19.93 4.22 19.36 3.55 18.61 3.38C18.48 3.35 18.37 3.26 18.32 3.14C18.09 2.47 17.46 2 16.72 2C15.98 2 15.36 2.47 15.12 3.13C15.08 3.26 14.97 3.34 14.84 3.37C14.08 3.54 13.52 4.22 13.52 5.03C13.52 5.84 14.09 6.51 14.84 6.68C14.97 6.71 15.08 6.8 15.13 6.92C15.36 7.58 15.99 8.05 16.73 8.05C17.47 8.05 18.09 7.58 18.33 6.92C18.37 6.79 18.49 6.7 18.62 6.68C19.36 6.51 19.93 5.83 19.93 5.03Z" fill="#F9C23C"/>
<path d="M19.0618 5.25223C19.3699 4.99451 19.7677 4.83997 20.2001 4.83997C20.9701 4.83997 21.6301 5.32997 21.8701 6.01997C21.9201 6.15997 22.0301 6.24997 22.1701 6.27997C22.9701 6.45997 23.5601 7.15997 23.5601 8.00997C23.5601 8.85997 22.9701 9.55997 22.1701 9.73997C22.0301 9.76997 21.9201 9.86997 21.8701 9.99997C21.6301 10.69 20.9701 11.18 20.2001 11.18C19.5691 11.18 19.012 10.8509 18.6993 10.3524C18.4271 10.5403 18.0976 10.65 17.74 10.65C17 10.65 16.37 10.18 16.14 9.51999C16.09 9.39999 15.98 9.30999 15.85 9.27999C15.7573 9.25896 15.6673 9.23029 15.5808 9.19465C15.3361 9.46297 15.0094 9.65687 14.6401 9.73997C14.5001 9.76997 14.3901 9.86997 14.3401 9.99997C14.1001 10.69 13.4401 11.18 12.6701 11.18C11.9001 11.18 11.2401 10.69 11.0001 9.99997C10.9601 9.85997 10.8401 9.76997 10.7001 9.73997C9.91007 9.55997 9.32007 8.85997 9.32007 8.00997C9.32007 7.15997 9.91007 6.45997 10.7001 6.27997C10.8401 6.24997 10.9601 6.15997 11.0001 6.01997C11.2501 5.32997 11.9001 4.83997 12.6801 4.83997C13.4501 4.83997 14.1101 5.32997 14.3501 6.01997C14.4001 6.15997 14.5101 6.24997 14.6501 6.27997C14.7877 6.31093 14.9191 6.35729 15.0424 6.41716C15.2612 6.20379 15.5363 6.04977 15.84 5.97999C15.97 5.95999 16.09 5.86999 16.13 5.73999C16.37 5.07999 16.99 4.60999 17.73 4.60999C18.2701 4.60999 18.7516 4.86036 19.0618 5.25223Z" fill="#FCD53F"/>
<path d="M19.5299 8.42004C20.1845 8.42004 20.7596 8.77419 21.0648 9.3043C21.3854 8.85277 21.9148 8.56006 22.5099 8.56006C23.2799 8.56006 23.9399 9.05006 24.1799 9.74006C24.2299 9.88006 24.3399 9.97006 24.4799 10.0001C25.2799 10.1801 25.8699 10.8801 25.8699 11.7301C25.8699 12.5701 25.2799 13.2801 24.4799 13.4601C24.3399 13.4901 24.2299 13.5901 24.1799 13.7201C23.9399 14.4101 23.2799 14.9001 22.5099 14.9001C21.8553 14.9001 21.2802 14.5459 20.9751 14.0158C20.6545 14.4673 20.1251 14.76 19.5299 14.76C18.7911 14.76 18.1536 14.3089 17.8911 13.6629C17.6903 13.7689 17.4668 13.8378 17.23 13.86C16.47 13.93 15.79 13.52 15.48 12.89C15.16 13.52 14.49 13.93 13.73 13.86C13.3142 13.8204 12.9375 13.6362 12.6535 13.3584C12.5535 13.4014 12.4487 13.4356 12.34 13.4601C12.2 13.4901 12.09 13.5901 12.04 13.7201C11.8 14.4101 11.14 14.9001 10.37 14.9001C9.60001 14.9001 8.94001 14.4101 8.70001 13.7201C8.65001 13.5801 8.54001 13.4901 8.40001 13.4601C7.60001 13.2801 7.01001 12.5801 7.01001 11.7301C7.01001 10.8801 7.61001 10.1701 8.40001 10.0001C8.54001 9.97006 8.65001 9.87006 8.70001 9.74006C8.94001 9.05006 9.60001 8.56006 10.37 8.56006C11.15 8.56006 11.8 9.05006 12.04 9.74006C12.09 9.88006 12.2 9.97006 12.34 10.0001C12.6741 10.0752 12.9716 10.2411 13.2047 10.4707C13.249 10.4521 13.2941 10.4352 13.34 10.42C13.53 10.36 13.68 10.21 13.75 10.02C13.98 9.30004 14.64 8.79004 15.43 8.79004C16.21 8.79004 16.87 9.29004 17.11 9.99004C17.1134 10.0011 17.117 10.012 17.121 10.0227C17.258 9.95042 17.4053 9.89527 17.5599 9.86004C17.6999 9.83004 17.8099 9.73004 17.8599 9.60004C18.0999 8.91004 18.7599 8.42004 19.5299 8.42004Z" fill="#FFF478"/>
<path d="M13.7401 14.13C13.6801 12.74 14.8001 11.58 16.1901 11.58C17.5801 11.58 18.6901 12.74 18.6401 14.13L22.3901 13.59C22.4801 12.54 23.3501 11.73 24.4101 11.73C25.6501 11.73 26.6001 12.84 26.4001 14.07L24.0701 28.82C23.9601 29.51 23.3601 30.02 22.6601 30.02H21.0901L19.6827 25.8043L18.0201 30.01H14.3601L13.0739 26.7061L11.3301 30.02H9.76012C9.06012 30.02 8.46012 29.51 8.35012 28.82L6.02012 14.07C5.83012 12.84 6.78012 11.73 8.02012 11.73C9.08012 11.73 9.96012 12.54 10.0301 13.59L13.7401 14.13Z" fill="#F8312F"/>
<path d="M11.2801 30.02L9.99012 13.74C9.90012 12.65 10.7601 11.73 11.8401 11.73C12.8401 11.73 13.6601 12.52 13.7001 13.52L14.3601 30.02H11.2801Z" fill="#F4F4F4"/>
<path d="M18.02 30.02L18.67 13.52C18.71 12.52 19.53 11.73 20.53 11.73C21.62 11.73 22.48 12.66 22.39 13.74L21.1 30.02H18.02Z" fill="#F4F4F4"/>
</svg>

<svg xmlns="http://www.w3.org/2000/svg" width="32" height="32" fill="none"><path fill="#F9C23C" d="M19.93 5.03c0-.81-.57-1.48-1.32-1.65a.415.415 0 0 1-.29-.24c-.23-.67-.86-1.14-1.6-1.14a1.7 1.7 0 0 0-1.6 1.13c-.04.13-.15.21-.28.24-.76.17-1.32.85-1.32 1.66 0 .81.57 1.48 1.32 1.65.13.03.24.12.29.24.23.66.86 1.13 1.6 1.13a1.7 1.7 0 0 0 1.6-1.13c.04-.13.16-.22.29-.24.74-.17 1.31-.85 1.31-1.65Z"/><path fill="#FCD53F" d="M19.062 5.252A1.77 1.77 0 0 1 20.2 4.84c.77 0 1.43.49 1.67 1.18.05.14.16.23.3.26.8.18 1.39.88 1.39 1.73s-.59 1.55-1.39 1.73c-.14.03-.25.13-.3.26-.24.69-.9 1.18-1.67 1.18a1.77 1.77 0 0 1-1.5-.828 1.68 1.68 0 0 1-.96.298c-.74 0-1.37-.47-1.6-1.13a.415.415 0 0 0-.29-.24 1.685 1.685 0 0 1-.27-.085 1.811 1.811 0 0 1-.94.545c-.14.03-.25.13-.3.26-.24.69-.9 1.18-1.67 1.18-.77 0-1.43-.49-1.67-1.18a.381.381 0 0 0-.3-.26 1.77 1.77 0 0 1-1.38-1.73c0-.85.59-1.55 1.38-1.73.14-.03.26-.12.3-.26.25-.69.9-1.18 1.68-1.18.77 0 1.43.49 1.67 1.18.05.14.16.23.3.26.138.03.27.077.392.137.22-.213.494-.367.798-.437.13-.02.25-.11.29-.24a1.7 1.7 0 0 1 2.932-.488Z"/><path fill="#FFF478" d="M19.53 8.42c.654 0 1.23.354 1.535.884a1.77 1.77 0 0 1 1.445-.744c.77 0 1.43.49 1.67 1.18.05.14.16.23.3.26.8.18 1.39.88 1.39 1.73 0 .84-.59 1.55-1.39 1.73-.14.03-.25.13-.3.26-.24.69-.9 1.18-1.67 1.18-.655 0-1.23-.354-1.535-.884a1.77 1.77 0 0 1-1.445.744 1.767 1.767 0 0 1-1.639-1.097c-.2.106-.424.175-.661.197-.76.07-1.44-.34-1.75-.97a1.77 1.77 0 0 1-2.827.468c-.1.043-.204.078-.313.102-.14.03-.25.13-.3.26-.24.69-.9 1.18-1.67 1.18-.77 0-1.43-.49-1.67-1.18a.396.396 0 0 0-.3-.26 1.771 1.771 0 0 1 0-3.46c.14-.03.25-.13.3-.26.24-.69.9-1.18 1.67-1.18.78 0 1.43.49 1.67 1.18.05.14.16.23.3.26.334.075.632.241.865.47.044-.018.09-.035.135-.05.19-.06.34-.21.41-.4.23-.72.89-1.23 1.68-1.23a1.774 1.774 0 0 1 1.691 1.233c.137-.073.284-.128.439-.163.14-.03.25-.13.3-.26.24-.69.9-1.18 1.67-1.18Z"/><path fill="#F8312F" d="M13.74 14.13a2.452 2.452 0 0 1 2.45-2.55c1.39 0 2.5 1.16 2.45 2.55l3.75-.54c.09-1.05.96-1.86 2.02-1.86 1.24 0 2.19 1.11 1.99 2.34l-2.33 14.75c-.11.69-.71 1.2-1.41 1.2h-1.57l-1.407-4.216-1.663 4.206h-3.66l-1.286-3.304-1.744 3.314H9.76c-.7 0-1.3-.51-1.41-1.2L6.02 14.07c-.19-1.23.76-2.34 2-2.34 1.06 0 1.94.81 2.01 1.86l3.71.54Z"/><path fill="#F4F4F4" d="M11.28 30.02 9.99 13.74c-.09-1.09.77-2.01 1.85-2.01 1 0 1.82.79 1.86 1.79l.66 16.5h-3.08ZM18.02 30.02l.65-16.5a1.863 1.863 0 1 1 3.72.22L21.1 30.02h-3.08Z"/></svg>
